X:1
T:This is Halloween
%%score ( 1 2 ) { ( 3 5 ) | 4 }
L:1/8
Q:1/4=80
M:4/4
K:C
V:1 treble nm="Voice" snm="Vo."
V:2 treble 
V:3 treble nm="Piano" snm="Pno."
V:5 treble 
V:4 bass 
V:1
"^Moderately""^Danny Elfman" z8 | z8 | z8 | z8 | z8 |"^Shadow:" GGGG G/_A/F F z | %6
w: |||||Boys and girls of ev- er- y age,|
w: ||||||
 F/F/F F/F/F (F/G/)_A G z |"^Siamese Shadow:" GG G(G/_A/) _B(A/G/) F z | FF F/G/_A G_E(DG) | %9
w: would- n't you like to see some- * thing strange?|Come with us and _ you will _ see|this, our to- wn of Hal- low- ~een! _|
w: |||
"^Pumpkin Patch Chorus:" _BB B/A/G BB B/A/G | _BF F_E/_D/ CG_A z | %11
w: This is Hal- low- een! This is Hal- low- een!|Pump- kins scream in the dead of night!|
w: ||
"^Ghosts:" _cc c/_B/_A _c/c/c/c/ c/B/A | BG GB/B/ B/B/B/B/ B/B/B | BBB z B/B/B/B/ B z | %14
w: This is Hal- low- een! Ev'- ry- bod- y make a scene!|Trick or treat till the neigh- bor's go- nna die of fright.|It's our town. Ev'- ry- bod- y scream|
w: |||
[M:3/4] A,F FA, ^G,(A,/B,/) |[M:4/4]"^Creature under bed:" BB/B/ BB/B/ B/B/B B z | BBBB BB/B/ B z | %17
w: in this town of Hal- low- *|een! * * * * * * * * *|teeth ground sharp and eyes glow- ing red!|
w: |I am the one hi- ding un- der your bed,||
"^Man under the staits:" BB/B/ BB/B/ B/B/B B z | B/B/B BB B/B/B/B/ B z | %19
w: I am the one hi- ding un- der your stairs,|fin- gers like snakes and spi- ders in my hair!|
w: ||
"^Corpse Shorus:" _EE E/D/C EE E/D/C |"^Vampires:" _c/_B/_A _c/B/A A/G/F A/G/F |[M:2/4] z4 | %22
w: This is Hal- low- een, this is Hal- low- een,|Hal- low- een! Hal- low- een! Hal- low- een! Hal- low- een!||
w: |||
[M:4/4]"^Vampires:" _cc c2 cc c2 | _c/c/c c_B/_A/ G_E A2 |"^Mayor:" BB B2 _AA A/G/F | %25
w: In this town we call home,|ev'- ry- one hail to the pump- kin song!|In this town, don't we love it now,|
w: |||
 B/B/B/B/ _E/E/_D/_C/ _B,F_G z |"^Corpse Chorus:" _AA A/G/F A/A/A/A/ (A/G/)F | %27
w: ev'- ry- bod- y's wait- ing for the next sur- prise.|'Round that cor- ner, man, hid- ing in the trash- * can|
w: ||
 _A_E E/E/_D/_C/ _B,F_GA | %28
w: some- thing's wait- ing now to pounce and make you|
w: |
 =A"^Harlequin Demon, Werewolf, Melting Man:"A/A/ A/^G/^F A/A/A/A/ A/G/F | %29
w: scream! This is Hal- low- een, red and black and slim- y green.|
w: |
"^Werewolf:" BBB"^Witches:"B BBB z | A/A/A A/^G/^F A/A/A/A/ A/G/F | AF/F/ FE/D/ B,^FF z | %32
w: Aren't you scared? Well, that's just fine!|Say it once, say it twice, take a chance and roll the dice.|Ride with the moon in the dead of night.|
w: |||
"^Hanging Tree:" B/B/B/B/ B z B/B/B/B/ B z |[M:3/4] G,_E EG, ^F,(G,/A,/) | %34
w: Ev'- ry- bo- dy scream! Ev'- ry- bo- dy scream!|In our town of Hal- low _|
w: ||
[M:4/4]"^Clown:" BB/B/ BB/B/ B/B/B B z | BB/B/ BB B/B/B/B/ B z | %36
w: ween! * * * * * * * * *|here in a flash and gone with- out a trace.|
w: I am the clown with the tear- a- way face,||
"^Second Ghoul:" BB/B/ BB/B/ BBB z | BB/B/ BB/B/ BBB z | %38
w: I am the who when you call "Who's there?"|I am the wind blow- ing through your hair!|
w: ||
"^Oogie Boogie Shadow:" BB/B/ B/B/B/B/ BBB z | B/B/B BB/B/ BBB z | %40
w: I am the shad- ow on the moon at night,|fill- ing your dreams to the brim with fright!|
w: ||
"^Corpse Chorus:" _AA A/G/F =AA A/G/F | d/^c/B d/c/B _B/A/G B/A/G | _B/A/G B/A/G z4 | %43
w: This is Hal- low- een, this is Hal- low- een,|Hal- low- een! Hal- low- een! Hal- low- een! Hal- low- een!|Hal- low- een! Hal- low- een!|
w: |||
 ^GGGG G/A/^F F z | ^FFFF F/^G/A G z |"^Parent Corpses:" ^G,G,G,A B(A/^G/) ^F z | %46
w: Ten- der lump- lings ev- er- y- where.|Life's no fun with- out a good scare.|That's our job, but we're not _ mean|
w: |||
 ^FF (F/^G/)A GE(^DG) |"^Corpse Chorus:" BB B2"^Mayor:" BB B/_B/^G | %48
w: in our town _ of Hal- low- een. _|In this town, don't we love it now?|
w: ||
"^Mayor, Corpse Chorus:" ^F/F/F F/F/E/D/ ^C^G A2 |"^Corpse Chorus:" c/c/c cA c/c/c/c/ cA | %50
w: Ev'- ry- one's wait- ing for the next sur- prise.|Skel- e- ton Jack might catch you in the back and|
w: ||
 cG/G/ G/G/F/_E/ DA_Bc | _dd/d/ d/c/_B d/d/d/d/ dB/B/ | ^cA A^G/^F/ B/B/B/B/ B z | %53
w: scream like a ban- shee, make you jump out of your|skin! This is Hal- low- een, ev'- ry- bod- y scream! Won't ya|please make way for a ver- y spe- cial guy!|
w: |||
 _ddd_B dd/d/ d/c/B | ^c/A/A A^G/^F/ _E_BB_e |"^Everyone:" FF F/E/D FF F/E/D | %56
w: Our man Jack is king of the pump- kin patch.|Ev'- ry- one hail to the Pump- kin King now.|This is Hal- low een! This is Hal- low een!|
w: |||
 _d/c/_B d/c/B B/A/G B/A/G |[M:2/4] z4 |[M:4/4]"^Corpse Child Trio:" _BB B2 BB B2 | %59
w: Hal- low- een! Hal- low- een! Hal low een! Hal- low- een!||In this town we call home|
w: |||
 _B/B/B BA/G/ ^FD G2 | [_Bd] z [Bd] z [Bd] z [Bd][B_e] | [Ac] z [Ac] z [Ac] z [Ac][A_e] | %62
w: ev'- ry- one hail to the Pump- kin Song.|||
w: |La, la, la, la, la,|la, la, la, la, la|
 [Bd] z [Bd] z [Bd] z [Bd][B_e] | [Ac]2 [Ac][G_e] [^Fd] z d'2 | z8 |"^(Wild laughter)" z8 | z8 | %67
w: La, la, la, la, la,|la, la, la, la, Whee!||||
w: |||||
 !fermata!z8 |] %68
w: |
w: |
V:2
 x8 | x8 | x8 | x8 | x8 | x8 | x8 | x8 | x8 | x8 | x8 | x8 | x8 | x8 |[M:3/4] x6 |[M:4/4] ^C4 z4 | %16
w: ||||||||||||||||
w: ||||||||||||||||
w: ||||||||||||||||
 x8 | x8 | x8 | x8 | x8 |[M:2/4] x4 |[M:4/4] x8 | x8 | x8 | x8 | x8 | x8 | x8 | x8 | x8 | x8 | x8 | %33
w: |||||||||||||||||
w: |||||||||||||||||
w: |||||||||||||||||
[M:3/4] x6 |[M:4/4] B,4 z4 | x8 | x8 | x8 | x8 | x8 | x8 | x8 | x8 | x8 | x8 | x8 | x8 | x8 | x8 | %49
w: ||||||||||||||||
w: ||||||||||||||||
w: ||||||||||||||||
 x8 | x8 | x8 | x8 | x8 | x8 | x8 | x8 |[M:2/4] x4 |[M:4/4] x8 | x8 | %60
w: |||||||||||
w: |||||||||||
w: |||||||||||
 G,/G,/G,/G,/ G,/G,/G,/G,/ _B,/A,/G, B,/A,/G, | C/C/C/C/ C/C/C/C/ C/_B,/A, C/B,/A, | %62
w: La la la la la la la la Hal- low- een! Hal- low- een!|La la la la la la la la * * * * * *|
w: ||
w: |* * * * * * * * Hal- low een! Hal- low- een!|
 B,/B,/B,/B,/ B,/B,/B,/B,/ D/^C/B, D/C/B, | A,/A,/A,/A,/ A,/A,/A,/A,/ D/D/D/D/ D/D/D/D/ | x8 | x8 | %66
w: ||||
w: La la la la la la la la Hal- low- een! Hal- low- een!|La la la la la la la la la la la la la la la la.|||
w: ||||
 x8 | x8 |] %68
w: ||
w: ||
w: ||
V:3
 .[_E,G,].[E,G,].[E,G,].[E,G,] .[E,G,].[E,G,].[E,G,].[E,G,] | %1
 .[C_EG].[CE].[CEG].[CE] .[CEG].[CE].[CEG].[CE_A] | %2
 .[_A,CDF].[A,CD].[A,CDF].[A,CD] .[A,CDF].[A,CD].[A,CDF]._A | %3
 .[B,EG].[B,E].[B,EG].[B,E]!<(! .G.B/.G/ .E/.B,/.G,/._A,/ | %4
 F,.c/._A/ .F/.C/.[_A,A] .[G,B,DG].[G,B,D] [G,B,DG]2!<)! | %5
!mf! .[C_EG].[CEG].[CEG].[CEG] [CEG]/_A/.[CDF] !>![CDF]2 | %6
 .[CDF]/F/.[CDF] .[CDF]/F/.[CDF] [CDF]/G/.[CF_A] !>![C_EG]2 | %7
 .[C_EG].[CEG] .[CEG][CEG]/_A/ [DF_B][DFA]/G/ [_B,DF]2 | .F.[_B,DF] F/G/_A!<(! G_E[=B,D]G!<)! | %9
!f! [DG_B][DGB] [DGB]/[CA]/[_B,DG] [DGB][DGB] [DGB]/[CA]/[B,DG] | ._B.[_B,_DF] F_E/D/ CG !>!_A2 | %11
 [_E_A_c][EAc] [EAc]/[_D_B]/[_CEA] [EAc]/c/[EAc]/c/ [EAc]/[DB]/[CEA] | %12
 =B[B,=EG] G[G,B,^F]/E/ .^C.[CE^G].G.[CEG] | ^F[B,DF] [_B,DG]2 F/F/[=B,DF]/F/ [_B,DG][=B,DF] | %14
[M:3/4] [F,A,][A,DF] [A,DF][F,A,] [E,^G,]A,/B,/ |[M:4/4] ^C3 A ^G3 ^F | %16
 ^D[^F,A,^C]D[A,C^F] ^G3 ^A | ^C3 [A^c] [^GB]3 [^FA] | ^D[^CA][=D^G][A,C^F] ^A4 | %19
 .[G,_E].[G,E] [G,E]/[F,D]/[_E,C] .[G,E].[G,E] [G,E]/[F,D]/[E,C] | %20
 [_E_c]/[_D_B]/[_C_A] [E_c]/[DB]/[CA] [=CA]/[_B,G]/[_A,F] [CA]/[B,G]/[A,F] | %21
[M:2/4]!p! _a/g/f/c/!<(! f/g/a/_b/!<)! |[M:4/4]!mp! [_e_a_c'][eac'] [_fac']2 [eac'][eac'] [fac']2 | %23
 [_e_a_c']/[eac']/[eac'] [eac'][_d_b]/[_ca]/ [_Bg]e [_Aea]2 | %24
 .[F,_A,C].[F,A,C] !>![F,A,_D]2 z .[F,A,C] z .[F,A,C] | z .[_A,_C_E] z .[A,CE] z .[_B,D].[B,E] z | %26
 z .[_A,CF] z .[A,CF] z .[A,CF] z .[A,CF] | z [_A,_C_E] z [A,CE] z!<(! [_B,DF][B,D_G]_A!<)! | %28
!f! [^C=A][C=A] [C=A]/[B,^G]/[A,^F] [CA]/[CA]/[CA]/[CA]/ A/G/F | %29
!>(! [D=FA][A,DF] [A,DF]E/D/!>)!!mp!!<(! ^F,/F,/B,/B,/ D/D/^F/F/!<)! | %30
!mf! [^C^FA]/[CFA]/[CFA] [CFA]/[B,^G]/[A,CF] [CFA]/A/[CFA]/A/ [CFA]/[B,G]/[A,CF] | %31
"_dim." A[A,DF]/F/ F[F,A,E]/D/ B,[B,D^F][B,DF] z | %32
!f! ^C[^F,A,C] !>![=F,A,D]2 [^F,A,C]/C/[F,A,C]/C/ [=F,A,D][^F,A,C] | %33
[M:3/4] [_E,G,][G,C_E] [G,CE][E,G,]!>(! [D,^F,]G,/A,/!>)! |[M:4/4]!mp! B,3 G ^F3 E | %35
 ^C[E,G,B,]C[G,B,E] ^F3 ^G | B,3 [GB] [^FA]3 [EG] | [^CA][B,G][C^F]E ^G4 | %38
 [_B_g]2 [_G_e]B [F_d]3 [_Ec] | B^F^GB .[_A_c].[Ac].[Ac].[Ac] | %40
!mf! [CF_A][CFA] [CFA]/G/F [DF=A][DFA] [DFA]/G/F | %41
 [^Fd]/[E^c]/[DB] [Fd]/[Ec]/[DB] [D_B]/[CA]/[_B,G] [DB]/[CA]/[B,G] | %42
!p! _b/a/g b/a/g!<(! D/D/G/G/ [G_B]/B/[GBd]/d/!<)! | %43
!f! [^ce^g][ceg][ceg][ceg] [ceg]/[^d^fa]/[^Bdf] [^Bdf]2 | %44
 [^B^d^f][Bdf][Bdf][Bdf] [Bdf]/[^ce^g]/[dfa] [ceg] z | ^G[^CEG]G[CEA] BA/G/ ^F z | %46
 ^F[B,^DF] F/^G/[B,DA] G[^CE]D[^B,DG] | .[^G,B,^D].[G,B,D] !>![G,B,E]2 z .[G,B,D] z .[G,B,D] | %48
 z [B,D^F] z [B,DF] z [B,^C^E] z [A,CF] | C/C/C C/B,/A, C/C/C/C/ C/B,/A, | %50
 c[C_EG]/G/ G/G/[CF]/E/!<(! D[D^FA]_Bc!<)! | _dd/d/ d/c/_B dd/_e/ d/c/B | %52
 [^FA^c][^CFA] [CFA]^G/F/ _E/E/_G/G/ _B/B/_e/e/ | %53
 [F_d][Fd][Fd][_D_B] [Fd][Fd]/[Fd]/ [Fd]/[_Ec]/[DB] | ^c/A/[^C^FA] A[A,C^G]/F/ _E[E_G_B]B[GB_e] | %55
 [A,DF][A,DF] F/E/D [A,DF][A,DF] F/E/D | [F_B_d]/c/B [FBd]/c/B [DGB]/A/G [DGB]/A/G | %57
[M:2/4]!p! _b/a/g/d/!<(! g/a/b/c'/!<)! |[M:4/4]!mp! [dg_b][dgb] [_egb]2 [dgb][dgb] [egb]2 | %59
 [dg_b]/[dgb]/[dgb] [dgb][ca]/[_Bg]/ [A^f]d [Gdg]2 |!ff! z [G_B]/[GB]/ [GB][GB] z [GB] z [GB] | %61
 c2 c2 c2 c_e | d2 d2 d2 d_e | c2 c[Gc_e] [^FAd]2!>(! !arpeggio![d^fad']2!>)! | %64
!mf! [_B,D][B,D][B,D][B,D] [B,D]/[C_E]/[A,C] [A,C]2 | %65
"_dim." [A,C][A,C][A,C][A,C] [A,C]/[_B,D]/[C_E] [B,D]2 |!pp! z4 _B/A/G- G2- | !fermata!G8 |] %68
V:4
"^detached, heavily"!mp! C,, z C,, z C,, z .C,,.G,,, | C,, z C,, z C,, z .C,,.G,,, | %2
 C,, z C,, z C,, z .C,,.F,, | .E,,.B,,.G,,.E,, .B,,.G,,.E,,.B,,, | .F,,.F,,.C,,.F,, G,,2 G,,,G,, | %5
 C,, z C,, z C,, z .C,,.G,,, | C,, z C,, z C,, z .C,,.G,,, | C,, z C,, z _B,,, z B,,, z | %8
 .F,,.F,, F,,/G,,/_A,, C,G,,G,,D,, | !>!G,, z D,, z !>!G,, z D,, z | %10
 _B,,.F,, F,,_E,,/_D,,/ .C,,G,, !>!_A,,2 | !>!_A,, z _E,, z !>!A,, z E,, z | %12
 =E,, z B,,, z ^C,, z !>!A,,.^G,, | B,, z G,,2 B,, z G,,B,, |[M:3/4]"^legato" D,,2 F,,2 E,,2 | %15
[M:4/4]!mp! .^F,,.^C,.^C,,.C, .F,,.C,.C,,.C, | .^F,,.^C,.^C,,.C, .^D,,.^A,,.^A,,,.A,, | %17
 .^F,,.^C,.^C,,.C, .F,,.C,.C,,.C, | .^F,,.^C,.^C,,.C, .^D,,.^A,,.F,,.D,, | %19
!mf! C,, z G,,, z C,, z G,,, z | ._A,,._E,,.A,,.E,, .F,,.C,,.F,,.C,, | %21
[M:2/4]"^sub." F/C/_A,/F,/ F/C/A,/F,/ |[M:4/4] _A, z _F, z A, z F, z | %23
 _E, z _C, z E,/_D,/C,/_B,,/ _A,,2 | %24
!mf! F,, z _D,, z"_heavily" !>!_A,,!>!A,, !>!A,,/!>!G,,/!>!F,, | %25
 _A,,_E,, E,,/E,,/_D,,/_C,,/ _B,,,F,,_G,,A,, | _A,,A,, A,,/G,,/F,, A,,/A,,/A,,/A,,/ A,,/G,,/F,, | %27
 _A,,_E,, E,,/E,,/_D,,/_C,,/ _B,,,F,,_G,,A,, | %28
 [^F,,^C,][F,,C,][F,,C,][F,,C,] [F,,C,][F,,C,][F,,C,][F,,C,] | %29
 [D,,A,,][D,,A,,][D,,A,,][D,,A,,] !>!B,,!>!A,,!>!^G,,!>!^F,, | ^F,, z ^C,, z F,, z C,, z | %31
 D,, z A,, z B,,A,,^G,,!mp!^F,, | ^F,, z !>!D,, z F,, z !>!D,,F,, |[M:3/4]!mf! C,,2 _E,,2 D,,2 | %34
[M:4/4] .E,,.B,,.B,,,.B,, .E,,.B,,.B,,,.B,, | .E,,.B,,.B,,,.B,, .^C,,.^G,,.^G,,,.G,, | %36
 .E,,.B,,.B,,,.B,, .E,,.B,,.B,,,.B,, | .E,,.B,,.B,,,.B,, .^C,,.^G,,.E,,.C,, | %38
 ._E,,._B,,._B,,,.B,, .E,,.B,,.B,,,.E,, | .B,,,.B,,.^F,,.B,, _A,,2 !>!_E,,2 | %40
 F,, z C,, z D,, z A,,, z | B,,, z ^F,, z .G,,.D,,._E,,.D,, | _B,,/A,,/G,, B,,/A,,/G,, G,D,B,,G,, | %43
 [^C,,^G,,]C,,C,,C,, [C,,G,,]C,,C,,C,, | [^C,,^G,,]C,,[C,,G,,]C,, [C,,G,,]C,,C,,C,, | %45
 ^G,,G,,G,,A,, B,,A,,/G,,/ ^F,,2 | ^F,,F,, F,,/^G,,/A,, G,,E,,^D,,G,, | %47
 ^G,, z E,, z"_heavily" !>!B,,!>!B,, !>!B,,/!>!^A,,/!>!G,, | B,,^F,, F,,E,,/D,,/ ^C,,^G,, A,,2 | %49
 !tenuto!A,,2 !tenuto!A,,2 C,/C,/C,/C,/ C,/B,,/A,, | C,G,,/G,,/ G,,/G,,/F,,/_E,,/ D,,A,,_B,,C, | %51
 [_B,,,_B,,] z F,, z [B,,,B,,] z F,, z | ^F,, z ^C,, z _E,,_D,,_C,,_B,,, | %53
 [_B,,,_B,,] z F,, z [B,,,B,,] z F,, z | ^F,, z ^C,, z _E,,_D,,_C,,_B,,, | %55
 !>!D,,2 F,,/E,,/D,, !>!D,,2 F,,/E,,/D,, | _D,/C,/_B,, D,/C,/B,, B,,/A,,/G,, B,,/A,,/G,, | %57
[M:2/4]"^sub." G/D/_B,/G,/ G/D/B,/G,/ |[M:4/4] G, z _E, z G,, z _E,, z | %59
 D,, z D,C,/_B,,/ A,,D,, [G,,,G,,]2 | [G,,,G,,] z [D,,,D,,] z [G,,,G,,] z [D,,,D,,] z | %61
 [C,,C,] z [G,,,G,,] z [C,,C,] z [G,,,G,,] z | [B,,,B,,] z [^F,,,^F,,] z [B,,,B,,] z [F,,,F,,] z | %63
 [C,,C,]2 [_E,,_E,][C,,C,] [D,,D,][C,,C,][_B,,,_B,,][A,,,A,,] | %64
 [G,,D,][G,,D,][G,,D,][G,,D,] [G,,D,][G,,D,][G,,D,][G,,D,] | %65
 [G,,D,][G,,D,][G,,D,][G,,D,] [G,,D,][G,,D,][G,,D,][G,,D,] | %66
 _B,,,/A,,,/G,,, B,,,/A,,,/G,,,- G,,,4- | !fermata!G,,,8 |] %68
V:5
 x8 | x8 | x8 | x8 | x8 | x8 | x8 | x8 | x8 | x8 | x4 z [C=E] z [CF] | x8 | x8 | x8 |[M:3/4] x6 | %15
[M:4/4] z [^F,A,][F,A,] z z [F,A,][F,A,] z | x4 z [^A,^D] [A,D]2 | %17
 z [^F,A,][F,A,] z z [F,A,][F,A,] z | x4 z .[^D^F] .[DF].[DF] | x8 | x8 |[M:2/4] x4 |[M:4/4] x8 | %23
 x8 | x8 | x8 | x8 | x8 | x8 | x8 | x8 | x8 | x8 |[M:3/4] x6 | %34
[M:4/4] z [E,G,][E,G,] z z [E,G,][E,G,] z | x4 z [^G,^C][G,C] z | %36
 z [E,G,][E,G,] z z [E,G,][E,G,] z | x4 z [^CE][CE][CE] | x8 | D4 _e4 | x8 | x8 | x8 | x8 | x8 | %45
 x4 z [B,^D] z [B,D] | x8 | x8 | x8 | E,2 =F,2 x4 | x8 | x8 | x8 | x8 | x8 | x8 | x8 |[M:2/4] x4 | %58
[M:4/4] x8 | x8 | d2 d2 d2 d_e | z [_EG]/[EG]/ [EG][EG] z [EG] z [EG] | %62
 z [^FB]/[FB]/ [FB][FB] z [FB] z [FB] | z [_EG]/[EG]/ z x5 | x8 | x8 | x8 | x8 |] %68

